brandFactory_export/3.Masa/Equipo _3Masa.svg

<?xml version="1.0" encoding="UTF-8"?>
<svg width="24px" height="24px" viewBox="0 0 24 24" version="1.1" xmlns="http://www.w3.org/2000/svg" xmlns:xlink="http://www.w3.org/1999/xlink">
    <title>3.Masa/Equipo _3Masa</title>
    <g id="Symbols" stroke="none" stroke-width="1" fill="none" fill-rule="evenodd">
        <g id="3.Masa/Equipo-_3Masa" fill="#5CB615" fill-rule="nonzero">
            <path d="M4.93781513,12.4554622 C4.06386555,12.4554622 3.38487395,12.2403361 2.91428571,11.8067227 C2.42352941,11.3596639 2.17815126,10.697479 2.17815126,9.83361345 C2.17815126,8.97310924 2.42689076,8.30756303 2.91428571,7.85714286 C3.38487395,7.42352941 4.06722689,7.20840336 4.93781513,7.20840336 C5.81176471,7.20840336 6.4907563,7.42689076 6.96470588,7.85714286 C7.45546218,8.30756303 7.70420168,8.97310924 7.70420168,9.83361345 C7.70420168,10.6941176 7.45546218,11.3563025 6.96470588,11.8067227 C6.4907563,12.2369748 5.80840336,12.4554622 4.93781513,12.4554622 Z M8.0605042,13.0235294 L11.102521,9.12436975 C11.1831933,9.02352941 11.3512605,9.07731092 11.3512605,9.20168067 L11.3512605,13.7361345 C11.3512605,13.7865546 11.3344538,13.8302521 11.3042017,13.8705882 L9.90588235,15.6151261 C9.87226891,15.6554622 9.85546218,15.7058824 9.85546218,15.7563025 L9.85546218,18.0352941 L9.9092437,22.3613445 C9.91260504,22.5260504 9.77142857,22.6605042 9.6,22.6605042 L4.29915966,22.6605042 L4.29915966,18.0117647 C4.29915966,17.6218487 3.96638655,17.3058824 3.55630252,17.3058824 C3.14621849,17.3058824 2.81344538,17.6218487 2.81344538,18.0117647 L2.81344538,22.6605042 L0.406722689,22.6605042 C0.231932773,22.6605042 0.0907563025,22.5260504 0.0907563025,22.3613445 L0.0302521008,16.512605 C0.0302521008,15.6789916 0.302521008,14.9663866 0.820168067,14.4554622 C1.38487395,13.897479 2.22521008,13.6016807 3.24705882,13.6016807 L6.61512605,13.6016807 C6.94117647,13.6016807 7.2605042,13.5815126 7.54285714,13.4436975 C7.71428571,13.3630252 8.0605042,13.0235294 8.0605042,13.0235294 L8.0605042,13.0235294 Z M22.8672269,14.4588235 C23.3848739,14.9697479 23.6571429,15.6823529 23.6571429,16.5193277 L23.5966387,22.3680672 C23.5966387,22.5294118 23.4588235,22.6638655 23.2840336,22.6638655 L20.9647059,22.6638655 C20.8941176,22.6638655 20.8369748,22.610084 20.8369748,22.5428571 L20.8369748,18.0117647 C20.8369748,17.6218487 20.5042017,17.3058824 20.097479,17.3058824 C19.687395,17.3058824 19.3546218,17.6218487 19.3546218,18.0117647 L19.3546218,22.5428571 C19.3546218,22.610084 19.3008403,22.6638655 19.2268908,22.6638655 L14.2285714,22.6638655 C13.9831933,22.6638655 13.7848739,22.4722689 13.7882353,22.2403361 L13.8386555,18.0487395 L13.8386555,15.7596639 C13.8386555,15.7092437 13.8218487,15.6621849 13.7882353,15.6218487 L12.3966387,13.887395 C12.3596639,13.8403361 12.3394958,13.7831933 12.3394958,13.7260504 L12.3394958,9.17478992 C12.3394958,9.05714286 12.4941176,9.00672269 12.5680672,9.10084034 L15.6302521,13.0235294 C15.6302521,13.0235294 15.9764706,13.3630252 16.1445378,13.4436975 C16.4235294,13.5781513 16.7462185,13.6016807 17.0722689,13.6016807 L20.4369748,13.6016807 C21.4621849,13.605042 22.302521,13.9008403 22.8672269,14.4588235 Z M16.7294118,11.810084 C16.2386555,11.3630252 15.9865546,10.7008403 15.9865546,9.83697479 C15.9865546,8.97647059 16.2352941,8.31092437 16.7260504,7.86386555 C17.2,7.4302521 17.8789916,7.21176471 18.7529412,7.21176471 C19.6235294,7.21176471 20.3058824,7.43361345 20.7764706,7.86386555 C21.2638655,8.31092437 21.512605,8.97647059 21.512605,9.83697479 C21.512605,10.697479 21.2638655,11.3596639 20.7764706,11.810084 C20.3058824,12.2403361 19.6268908,12.4588235 18.7529412,12.4588235 C17.8823529,12.4554622 17.2,12.2403361 16.7294118,11.810084 L16.7294118,11.810084 Z M11.5596639,5.42352941 C11.287395,5.31932773 11.0957983,5.06386555 11.0991597,4.76806723 L11.1159664,1.71260504 C11.1193277,1.32268908 11.4487395,1.01008403 11.8588235,1.01008403 L11.8621849,1.01008403 C12.2722689,1.01344538 12.6016807,1.32941176 12.5983193,1.71932773 L12.5815126,4.77478992 C12.5781513,5.16470588 12.2487395,5.47731092 11.8386555,5.47731092 L11.8352941,5.47731092 C11.8252101,5.47731092 11.8184874,5.47394958 11.805042,5.47058824 C11.794958,5.47394958 11.7882353,5.47731092 11.7781513,5.47731092 L11.7747899,5.47731092 C11.697479,5.47731092 11.6268908,5.45378151 11.5596639,5.42352941 Z M8.62184874,6.18319328 L7.2302521,4.84201681 C6.94117647,4.56638655 6.94453782,4.11932773 7.23697479,3.84369748 C7.52605042,3.56806723 7.99663866,3.57142857 8.28571429,3.84705882 L9.67731092,5.18823529 C9.96638655,5.46386555 9.96302521,5.91428571 9.67394958,6.18655462 C9.52941176,6.3210084 9.34117647,6.39159664 9.15294118,6.39159664 C9.14285714,6.39159664 9.13277311,6.38487395 9.12268908,6.38487395 C9.11260504,6.38487395 9.10252101,6.39159664 9.09243697,6.39159664 C9.01848739,6.39159664 8.94789916,6.37142857 8.88067227,6.34117647 C8.78319328,6.30756303 8.69579832,6.25378151 8.62184874,6.18319328 L8.62184874,6.18319328 Z M14.2756303,6.34117647 C14.1848739,6.30756303 14.097479,6.25714286 14.0235294,6.18655462 C13.7310924,5.91092437 13.7310924,5.46386555 14.0168067,5.18823529 L15.4084034,3.85042017 C15.697479,3.57142857 16.1647059,3.57142857 16.4571429,3.84369748 C16.7495798,4.11932773 16.7495798,4.56302521 16.4638655,4.84201681 L15.0722689,6.18319328 C14.9277311,6.32436975 14.7361345,6.39495798 14.5445378,6.39495798 C14.5344538,6.39495798 14.5243697,6.38823529 14.5142857,6.38823529 C14.5042017,6.38823529 14.4941176,6.39495798 14.4840336,6.39495798 C14.410084,6.39495798 14.3394958,6.37142857 14.2756303,6.34117647 L14.2756303,6.34117647 Z" id="Equipo-_3Masa"></path>
        </g>
    </g>
</svg>

<svg width="24" height="24" viewBox="0 0 24 24" xmlns="http://www.w3.org/2000/svg"><path d="M4.938 12.455c-.874 0-1.553-.215-2.024-.648-.49-.447-.736-1.11-.736-1.973 0-.86.249-1.526.736-1.977.47-.433 1.153-.649 2.024-.649.874 0 1.553.219 2.027.65.49.45.74 1.115.74 1.976 0 .86-.25 1.522-.74 1.973-.474.43-1.157.648-2.027.648zm3.123.569l3.042-3.9c.08-.1.248-.047.248.078v4.534c0 .05-.017.094-.047.135l-1.398 1.744a.22.22 0 00-.05.141v2.28l.053 4.325c.004.165-.138.3-.309.3H4.3v-4.65c0-.39-.334-.705-.744-.705s-.743.316-.743.706v4.649H.407a.308.308 0 01-.316-.3l-.06-5.848c0-.834.272-1.547.79-2.058.564-.558 1.404-.853 2.426-.853h3.368c.326 0 .646-.02.928-.158.171-.081.518-.42.518-.42zm14.806 1.435c.518.51.79 1.223.79 2.06l-.06 5.85a.304.304 0 01-.313.295h-2.32a.124.124 0 01-.127-.121v-4.531c0-.39-.333-.706-.74-.706-.41 0-.742.316-.742.706v4.53c0 .068-.054.122-.128.122h-4.998a.43.43 0 01-.44-.424l.05-4.191v-2.29a.211.211 0 00-.05-.137l-1.392-1.735a.263.263 0 01-.058-.16V9.174c0-.118.155-.168.23-.074l3.061 3.923s.346.339.515.42c.279.134.601.158.927.158h3.365c1.025.003 1.866.299 2.43.857zM16.73 11.81c-.49-.447-.742-1.11-.742-1.973 0-.86.248-1.526.74-1.973.473-.434 1.152-.652 2.026-.652.87 0 1.553.222 2.023.652.488.447.737 1.112.737 1.973 0 .86-.25 1.523-.737 1.973-.47.43-1.15.649-2.023.649-.87-.004-1.553-.219-2.024-.649zm-5.17-6.386a.7.7 0 01-.46-.656l.017-3.055c.003-.39.333-.703.743-.703h.003c.41.003.74.32.736.71l-.016 3.055c-.004.39-.333.702-.743.702h-.004c-.01 0-.017-.003-.03-.006-.01.003-.017.006-.027.006h-.003a.521.521 0 01-.215-.053zm-2.937.76L7.23 4.841a.68.68 0 01.007-.998.768.768 0 011.049.003l1.391 1.341a.683.683 0 01-.003.999.767.767 0 01-.521.205c-.01 0-.02-.007-.03-.007-.01 0-.02.007-.03.007a.516.516 0 01-.212-.05.708.708 0 01-.26-.159zm5.654.157a.73.73 0 01-.252-.154.683.683 0 01-.007-.999l1.391-1.338a.768.768 0 011.05-.006c.292.275.292.719.006.998l-1.392 1.341a.753.753 0 01-.527.212c-.01 0-.02-.007-.03-.007-.01 0-.02.007-.031.007a.491.491 0 01-.208-.054z" fill="#5CB615" fill-rule="nonzero"/></svg>
